resources/svg/document-txt.svg

<svg xmlns="http://www.w3.org/2000/svg" viewBox="0 0 24 24" fill="currentColor"><path fill="none" stroke="currentColor" stroke-width="2" d="M4.99787498,8.99999999 L4.99787498,0.999999992 L19.4999998,0.999999992 L22.9999998,4.50000005 L23,23 L4,23 M18,1 L18,6 L23,6 M2,12 L7,12 M4.5,12 L4.5,19 M16,12 L21,12 M18.5,12 L18.5,19 M14.5,11.5 L8.5,18.5 M8.5,11.5 L14.5,18.5"/></svg>

<svg viewBox="0 0 24 24"><path fill="none" stroke="currentColor" stroke-width="2" d="M4.998 9V1H19.5L23 4.5V23H4M18 1v5h5M2 12h5m-2.5 0v7M16 12h5m-2.5 0v7m-4-7.5l-6 7m0-7l6 7"/></svg>
